X:370
T:
R:polska
S:Efter »Florsen» i Burs.
O:Gotland, Burs
M:3/4
L:1/16
K:G
D2|GABc Bcde d3g|g2fg .e3.d .c2.B2|cBAG FGAB c3e|edBd dcAc c2B2|
G2BG A2cB B2dB|c2ec B2dB A2cA|GABG ABcA BcdB|cdec cBdB BAcA|
GABc defg gdec|BcAF A4 G2::g2|fegf dfaf gaba|gfef defg Ld3g|
edcB cded Lc4|c2BA GABG LD4|G2BG A2cA B2dB|c2ec B2dB A2cA|
GABG ABcA BcdB|cdec cBdB BAcA|GABc defg fdec|BcAF A4 G2:|

